Origami/64x64/apps/airwave-manager.svg

<svg width="64" height="64" version="1" xmlns="http://www.w3.org/2000/svg">
 <path d="m12 54.332v2c0 1.478 1.1906 2.668 2.668 2.668h34.664c1.478 0 2.668-1.19 2.668-2.668v-2c0 1.478-1.19 2.668-2.668 2.668h-34.664c-1.4774 0-2.668-1.19-2.668-2.668z" style="opacity:.2"/>
 <rect x="18" y="6" width="8" height="22" rx="2.666" ry="2.75" style="fill:#848484"/>
 <rect x="38" y="6" width="8" height="22" rx="2.666" ry="2.75" style="fill:#848484"/>
 <rect x="12" y="26" width="40" height="32" rx="2.666" ry="2.666" style="fill:#ba2d2d"/>
 <path d="m20.667969 6c-1.4774 0-2.667969 1.2264-2.667969 2.75v1c0-1.5236 1.190569-2.75 2.667969-2.75h2.664062c1.478 0 2.667969 1.2264 2.667969 2.75v-1c0-1.5236-1.189969-2.75-2.667969-2.75h-2.664062z" style="fill:#ffffff;opacity:.2"/>
 <path d="m40.667969 6c-1.478 0-2.667969 1.2264-2.667969 2.75v1c0-1.5236 1.189969-2.75 2.667969-2.75h2.664062c1.478 0 2.667969 1.2264 2.667969 2.75v-1c0-1.5236-1.189969-2.75-2.667969-2.75h-2.664062z" style="fill:#ffffff;opacity:.2"/>
</svg>

<svg xmlns="http://www.w3.org/2000/svg" width="64" height="64" version="1">
 <path style="opacity:0.2" d="m 12,54.332 0,2 C 12,57.81 13.1906,59 14.668,59 l 34.664,0 C 50.81,59 52,57.81 52,56.332 l 0,-2 C 52,55.81 50.81,57 49.332,57 L 14.668,57 C 13.1906,57 12,55.81 12,54.332 Z"/>
 <rect style="fill:#848484" width="8" height="22" x="18" y="6" rx="2.666" ry="2.75"/>
 <rect style="fill:#848484" width="8" height="22" x="38" y="6" rx="2.666" ry="2.75"/>
 <rect style="fill:#ba2d2d" width="40" height="32" x="12" y="26" rx="2.666" ry="2.666"/>
 <path style="opacity:0.2;fill:#ffffff" d="M 20.667969 6 C 19.190569 6 18 7.2264 18 8.75 L 18 9.75 C 18 8.2264 19.190569 7 20.667969 7 L 23.332031 7 C 24.810031 7 26 8.2264 26 9.75 L 26 8.75 C 26 7.2264 24.810031 6 23.332031 6 L 20.667969 6 z"/>
 <path style="opacity:0.2;fill:#ffffff" d="M 40.667969 6 C 39.189969 6 38 7.2264 38 8.75 L 38 9.75 C 38 8.2264 39.189969 7 40.667969 7 L 43.332031 7 C 44.810031 7 46 8.2264 46 9.75 L 46 8.75 C 46 7.2264 44.810031 6 43.332031 6 L 40.667969 6 z"/>
</svg>
